demo/assets/svg/components/popover-top.svg

<?xml version="1.0" encoding="utf-8"?>
<!-- Generator: Adobe Illustrator 24.2.1, SVG Export Plug-In . SVG Version: 6.00 Build 0)  -->
<svg version="1.1" id="Layer_1" xmlns="http://www.w3.org/2000/svg" xmlns:xlink="http://www.w3.org/1999/xlink" x="0px" y="0px"
	 viewBox="0 0 890 500" style="enable-background:new 0 0 890 500;" xml:space="preserve">
<style type="text/css">
	.st0{fill:#F8FAFD;}
	.st1{fill:#59B654;}
	.st2{fill:none;stroke:#BDC5D1;stroke-width:4;}
	.st3{fill:#BDC5D1;}
	.st4{fill:#FFFFFF;stroke:#BDC5D1;stroke-width:4;}
</style>
<rect class="st0" width="890" height="500"/>
<path class="st1" d="M494.7,387.1c0,27.7-22.4,50-50,50c-27.6,0-50-22.3-50-50c0-27.6,22.4-50,50-50
	C472.4,337.1,494.7,359.5,494.7,387.1z M446.1,353.6c-11,0-18,4.6-23.5,12.8c-0.7,1-0.4,2.5,0.5,3.2l7,5.3c1,0.8,2.6,0.6,3.4-0.4
	c3.6-4.6,6-7.2,11.6-7.2c4.1,0,9.2,2.7,9.2,6.6c0,3-2.5,4.6-6.6,6.9c-4.7,2.7-11,6-11,14.2v0.8c0,1.3,1.1,2.4,2.4,2.4h11.3
	c1.3,0,2.4-1.1,2.4-2.4v-0.3c0-5.8,16.7-6,16.7-21.5C469.6,362.5,457.4,353.6,446.1,353.6L446.1,353.6z M444.7,403.6
	c-5.1,0-9.3,4.1-9.3,9.3c0,5.1,4.1,9.3,9.3,9.3c5.2,0,9.3-4.1,9.3-9.3C454,407.8,449.8,403.6,444.7,403.6z"/>
<line class="st2" x1="234.2" y1="270.1" x2="657" y2="270.1"/>
<path class="st3" d="M269.2,227.1h355c5,0,9,4,9,9l0,0c0,5-4,9-9,9h-355c-5,0-9-4-9-9l0,0C260.2,231.1,264.2,227.1,269.2,227.1z"/>
<path class="st4" d="M240.7,45.1h405c5,0,9,4,9,9v208c0,5-4,9-9,9h-405c-5,0-9-4-9-9v-208C231.7,49.1,235.7,45.1,240.7,45.1z"/>
<line class="st2" x1="232.7" y1="113.1" x2="655.5" y2="113.1"/>
<path class="st3" d="M267.7,70.1h355c5,0,9,4,9,9l0,0c0,5-4,9-9,9h-355c-5,0-9-4-9-9l0,0C258.7,74.1,262.7,70.1,267.7,70.1z"/>
<path class="st3" d="M261.7,140.1h311c5,0,9,4,9,9l0,0c0,5-4,9-9,9h-311c-5,0-9-4-9-9l0,0C252.7,144.1,256.7,140.1,261.7,140.1z"/>
<path class="st3" d="M261.7,184.1h239c5,0,9,4,9,9l0,0c0,5-4,9-9,9h-239c-5,0-9-4-9-9l0,0C252.7,188.1,256.7,184.1,261.7,184.1z"/>
<path class="st3" d="M261.7,228.1h334c5,0,9,4,9,9l0,0c0,5-4,9-9,9h-334c-5,0-9-4-9-9l0,0C252.7,232.1,256.7,228.1,261.7,228.1z"/>
<path class="st4" d="M440.5,297.6l-25.9-26.5l0,0h56.1c0.9,0,1.3,1.1,0.7,1.7l-24.3,24.8C445.3,299.5,442.3,299.5,440.5,297.6z"/>
</svg>

<svg width="890" height="500" viewBox="0 0 890 500" fill="none" xmlns="http://www.w3.org/2000/svg">
<path d="M890 0H0V500H890V0Z" fill="#F8FAFD"/>
<path d="M494.7 387.1C494.7 414.8 472.3 437.1 444.7 437.1C417.1 437.1 394.7 414.8 394.7 387.1C394.7 359.5 417.1 337.1 444.7 337.1C472.4 337.1 494.7 359.5 494.7 387.1ZM446.1 353.6C435.1 353.6 428.1 358.2 422.6 366.4C421.9 367.4 422.2 368.9 423.1 369.6L430.1 374.9C431.1 375.7 432.7 375.5 433.5 374.5C437.1 369.9 439.5 367.3 445.1 367.3C449.2 367.3 454.3 370 454.3 373.9C454.3 376.9 451.8 378.5 447.7 380.8C443 383.5 436.7 386.8 436.7 395V395.8C436.7 397.1 437.8 398.2 439.1 398.2H450.4C451.7 398.2 452.8 397.1 452.8 395.8V395.5C452.8 389.7 469.5 389.5 469.5 374C469.6 362.5 457.4 353.6 446.1 353.6ZM444.7 403.6C439.6 403.6 435.4 407.7 435.4 412.9C435.4 418 439.5 422.2 444.7 422.2C449.9 422.2 454 418.1 454 412.9C454 407.8 449.8 403.6 444.7 403.6Z" fill="#59B654"/>
<path d="M234.2 270.1H657" stroke="#BDC5D1" stroke-width="4"/>
<path d="M269.2 227.1H624.2C629.2 227.1 633.2 231.1 633.2 236.1C633.2 241.1 629.2 245.1 624.2 245.1H269.2C264.2 245.1 260.2 241.1 260.2 236.1C260.2 231.1 264.2 227.1 269.2 227.1Z" fill="#BDC5D1"/>
<path d="M240.7 45.1H645.7C650.7 45.1 654.7 49.1 654.7 54.1V262.1C654.7 267.1 650.7 271.1 645.7 271.1H240.7C235.7 271.1 231.7 267.1 231.7 262.1V54.1C231.7 49.1 235.7 45.1 240.7 45.1Z" fill="white" stroke="#BDC5D1" stroke-width="4"/>
<path d="M232.7 113.1H655.5" stroke="#BDC5D1" stroke-width="4"/>
<path d="M267.7 70.1H622.7C627.7 70.1 631.7 74.1 631.7 79.1C631.7 84.1 627.7 88.1 622.7 88.1H267.7C262.7 88.1 258.7 84.1 258.7 79.1C258.7 74.1 262.7 70.1 267.7 70.1Z" fill="#BDC5D1"/>
<path d="M261.7 140.1H572.7C577.7 140.1 581.7 144.1 581.7 149.1C581.7 154.1 577.7 158.1 572.7 158.1H261.7C256.7 158.1 252.7 154.1 252.7 149.1C252.7 144.1 256.7 140.1 261.7 140.1Z" fill="#BDC5D1"/>
<path d="M261.7 184.1H500.7C505.7 184.1 509.7 188.1 509.7 193.1C509.7 198.1 505.7 202.1 500.7 202.1H261.7C256.7 202.1 252.7 198.1 252.7 193.1C252.7 188.1 256.7 184.1 261.7 184.1Z" fill="#BDC5D1"/>
<path d="M261.7 228.1H595.7C600.7 228.1 604.7 232.1 604.7 237.1C604.7 242.1 600.7 246.1 595.7 246.1H261.7C256.7 246.1 252.7 242.1 252.7 237.1C252.7 232.1 256.7 228.1 261.7 228.1Z" fill="#BDC5D1"/>
<path d="M440.5 297.6L414.6 271.1H470.7C471.6 271.1 472 272.2 471.4 272.8L447.1 297.6C445.3 299.5 442.3 299.5 440.5 297.6Z" fill="white" stroke="#BDC5D1" stroke-width="4"/>
</svg>
